hosted_logos/cosmwasm.svg

<svg xmlns="http://www.w3.org/2000/svg" role="img" viewBox="-3.99 -3.99 207.74 117.24"><title>CosmWasm logo</title><circle cx="100.135" cy="34.579" r="34.579" fill="url(#paint0_linear_2959_2277)"/><path fill="#1F1F1F" d="M93.375 57.4486c4.9513-2.8588 7.13-8.3458 7.404-13.6956.26-5.0988-4.7706-8.0632-9.2605-10.4935-5.6745-3.0715-9.5373-9.0771-9.5373-15.9703 0-2.6248.5623-5.1204 1.5706-7.37482.295-.65956-.4466-1.38799-1.0418-.97827C74.3601 14.5468 69.0146 23.9359 69.0146 34.5787c0 9.1573 3.0387-4.1886 10.0321 17.8494 1.301 4.0997 4.5456 7.6886 8.7872 6.9747 1.9112-.3216 3.8291-.966 5.5411-1.9542z"/><path fill="#1F1F1F" d="M83.7328 17.2842c.0001 5.7173 3.6625 10.3481 8.1589 13.2597 4.2854 2.7749 9.3683-.0997 13.7173-2.7729 5.498-3.3785 12.63-3.721 18.6-.2744 2.273 1.3124 4.153 3.0471 5.601 5.0476.424.5852 1.426.3072 1.368-.4131-.784-9.8634-6.242-19.1872-15.459-24.5086-7.931-4.57867 2.108 4.7258-20.4741-.23671-4.201-.92318-8.9314.09234-10.434 4.12261-.677 1.8159-1.0779 3.7991-1.0781 5.7758z"/><path fill="#1F1F1F" d="M123.333 29.0201c-4.951-2.8585-10.793-2.0023-15.563.436-4.545 2.3238-4.597 8.1629-4.457 13.2663.177 6.4501-3.092 12.7981-9.062 16.2447-2.2732 1.3124-4.7156 2.0733-7.1721 2.3272-.7187.0744-.9788 1.0808-.3264 1.3914 8.934 4.2526 19.7375 4.1874 28.9545-1.134 7.931-4.5786-5.146-.5372 10.442-17.6127 2.9-3.1765 4.386-7.7809 1.647-11.0973-1.234-1.4943-2.751-2.8331-4.463-3.8216z"/><path fill="#fff" d="M17.2669 106.637c0 .795-.2878 1.48-.8634 2.056-.5481.548-1.2196.822-2.0144.822H2.87781c-.79482 0-1.48001-.274-2.05558-.822C.27408 108.117 0 107.432 0 106.637V92.2479c0-.7948.27408-1.4663.82223-2.0144.57557-.5756 1.26076-.8634 2.05558-.8634H14.3891c.7948 0 1.4663.2878 2.0144.8634.5756.5481.8634 1.2196.8634 2.0144v2.8778H13.978v-2.8778H3.28893v14.3891H13.978v-2.878h3.2889v2.878zm22.629 0c0 .795-.2877 1.48-.8633 2.056-.5482.548-1.2196.822-2.0145.822h-8.6334c-.7948 0-1.48-.274-2.0556-.822-.5482-.576-.8222-1.261-.8222-2.056v-8.6334c0-.7949.274-1.4664.8222-2.0145.5756-.5756 1.2608-.8634 2.0556-.8634h8.6334c.7949 0 1.4663.2878 2.0145.8634.5756.5481.8633 1.2196.8633 2.0145v8.6334zm-2.8778.411v-9.4556h-8.6334v9.4556h8.6334zm23.2377-11.9223l-2.5078 2.4667h-6.9478v3.2886h5.7556c.7948 0 1.4663.288 2.0145.864.5755.548.8633 1.219.8633 2.014v2.878c0 .795-.2878 1.48-.8633 2.056-.5482.548-1.2197.822-2.0145.822h-8.6335v-2.467h8.6335v-3.7h-5.7556c-.7949 0-1.4801-.274-2.0556-.822-.5482-.576-.8223-1.261-.8223-2.056v-2.4664c0-.7949.2741-1.4664.8223-2.0145.5755-.5756 1.2607-.8634 2.0556-.8634h9.4556zm31.436 14.3893h-2.8779V97.5924h-7.8112v11.9226h-2.8778V97.5924h-7.8112v11.9226h-2.8778V95.1257h2.8778v2.0556l2.0556-2.0556h5.7556c1.6719 0 2.6175.6989 2.8367 2.0967l2.0967-2.0967h5.7556c.7949 0 1.4664.2878 2.0145.8634.5756.5481.8634 1.2196.8634 2.0145v11.5114zm35.5812-20.1449l-4.523 20.1449h-5.55l-3.905-14.7593h-.411l-3.906 14.7593h-5.55l-4.5224-20.1449h3.7004l3.289 17.3489h.822l4.728-17.3489h3.289l4.727 17.3489h.823l3.289-17.3489h3.7zm20.957 20.1449h-2.878v-2.097l-2.467 2.097h-6.166c-.795 0-1.48-.274-2.056-.822-.548-.576-.822-1.261-.822-2.056v-2.878c0-.795.274-1.466.822-2.014.576-.576 1.261-.864 2.056-.864h8.222l-2.467 2.426h-5.755v3.741h8.633v-9.4556h-11.511l2.467-2.4667h9.044c.795 0 1.466.2878 2.015.8634.575.5481.863 1.2196.863 2.0145v11.5114zm20.334-14.3893l-2.508 2.4667h-6.948v3.2886h5.756c.795 0 1.466.288 2.014.864.576.548.864 1.219.864 2.014v2.878c0 .795-.288 1.48-.864 2.056-.548.548-1.219.822-2.014.822h-8.633v-2.467h8.633v-3.7h-5.756c-.794 0-1.48-.274-2.055-.822-.548-.576-.822-1.261-.822-2.056v-2.4664c0-.7949.274-1.4664.822-2.0145.575-.5756 1.261-.8634 2.055-.8634h9.456zM200 109.515h-2.878V97.5924h-7.811v11.9226h-2.878V97.5924h-7.811v11.9226h-2.878V95.1257h2.878v2.0556l2.056-2.0556h5.755c1.672 0 2.618.6989 2.837 2.0967l2.097-2.0967h5.755c.795 0 1.467.2878 2.015.8634.575.5481.863 1.2196.863 2.0145v11.5114z"/><defs><linearGradient id="paint0_linear_2959_2277" x1="78.42" x2="122.681" y1="2.905" y2="65.977" gradientUnits="userSpaceOnUse"><stop stop-color="#FCECB2"/><stop offset=".26" stop-color="#FF8B89"/><stop offset=".521" stop-color="#FC8ADC"/><stop offset=".755" stop-color="#7954FF"/><stop offset="1" stop-color="#70BCFF"/></linearGradient></defs></svg>

<svg width="200" height="110" viewBox="0 0 200 110" fill="none" xmlns="http://www.w3.org/2000/svg">
<circle cx="100.135" cy="34.5789" r="34.5789" fill="url(#paint0_linear_2959_2277)"/>
<path d="M93.375 57.4486C98.3263 54.5898 100.505 49.1028 100.779 43.753C101.039 38.6542 96.0084 35.6898 91.5185 33.2595C85.844 30.188 81.9812 24.1824 81.9812 17.2892C81.9812 14.6644 82.5435 12.1688 83.5518 9.91438C83.8468 9.25482 83.1052 8.52639 82.51 8.93611C74.3601 14.5468 69.0146 23.9359 69.0146 34.5787C69.0146 43.736 72.0533 30.3901 79.0467 52.4281C80.3477 56.5278 83.5923 60.1167 87.8339 59.4028C89.7451 59.0812 91.663 58.4368 93.375 57.4486Z" fill="#1F1F1F"/>
<path d="M83.7328 17.2842C83.7329 23.0015 87.3953 27.6323 91.8917 30.5439C96.1771 33.3188 101.26 30.4442 105.609 27.771C111.107 24.3925 118.239 24.05 124.209 27.4966C126.482 28.809 128.362 30.5437 129.81 32.5442C130.234 33.1294 131.236 32.8514 131.178 32.1311C130.394 22.2677 124.936 12.9439 115.719 7.6225C107.788 3.04383 117.827 12.3483 95.2449 7.38579C91.0439 6.46261 86.3135 7.47813 84.8109 11.5084C84.1339 13.3243 83.733 15.3075 83.7328 17.2842Z" fill="#1F1F1F"/>
<path d="M123.333 29.0201C118.382 26.1616 112.54 27.0178 107.77 29.4561C103.225 31.7799 103.173 37.619 103.313 42.7224C103.49 49.1725 100.221 55.5205 94.251 58.9671C91.9778 60.2795 89.5354 61.0404 87.0789 61.2943C86.3602 61.3687 86.1001 62.3751 86.7525 62.6857C95.6865 66.9383 106.49 66.8731 115.707 61.5517C123.638 56.9731 110.561 61.0145 126.149 43.939C129.049 40.7625 130.535 36.1581 127.796 32.8417C126.562 31.3474 125.045 30.0086 123.333 29.0201Z" fill="#1F1F1F"/>
<path d="M17.2669 106.637C17.2669 107.432 16.9791 108.117 16.4035 108.693C15.8554 109.241 15.1839 109.515 14.3891 109.515H2.87781C2.08299 109.515 1.3978 109.241 0.822233 108.693C0.274078 108.117 0 107.432 0 106.637V92.2479C0 91.4531 0.274078 90.7816 0.822233 90.2335C1.3978 89.6579 2.08299 89.3701 2.87781 89.3701H14.3891C15.1839 89.3701 15.8554 89.6579 16.4035 90.2335C16.9791 90.7816 17.2669 91.4531 17.2669 92.2479V95.1257H13.978V92.2479H3.28893V106.637H13.978V103.759H17.2669V106.637Z" fill="white"/>
<path d="M39.8959 106.637C39.8959 107.432 39.6082 108.117 39.0326 108.693C38.4844 109.241 37.813 109.515 37.0181 109.515H28.3847C27.5899 109.515 26.9047 109.241 26.3291 108.693C25.7809 108.117 25.5069 107.432 25.5069 106.637V98.0036C25.5069 97.2087 25.7809 96.5372 26.3291 95.9891C26.9047 95.4135 27.5899 95.1257 28.3847 95.1257H37.0181C37.813 95.1257 38.4844 95.4135 39.0326 95.9891C39.6082 96.5372 39.8959 97.2087 39.8959 98.0036V106.637ZM37.0181 107.048V97.5924H28.3847V107.048H37.0181Z" fill="white"/>
<path d="M60.2558 95.1257L57.748 97.5924H50.8002V100.881H56.5558C57.3506 100.881 58.0221 101.169 58.5703 101.745C59.1458 102.293 59.4336 102.964 59.4336 103.759V106.637C59.4336 107.432 59.1458 108.117 58.5703 108.693C58.0221 109.241 57.3506 109.515 56.5558 109.515H47.9223V107.048H56.5558V103.348H50.8002C50.0053 103.348 49.3201 103.074 48.7446 102.526C48.1964 101.95 47.9223 101.265 47.9223 100.47V98.0036C47.9223 97.2087 48.1964 96.5372 48.7446 95.9891C49.3201 95.4135 50.0053 95.1257 50.8002 95.1257H60.2558Z" fill="white"/>
<path d="M91.6918 109.515H88.8139V97.5924H81.0027V109.515H78.1249V97.5924H70.3137V109.515H67.4359V95.1257H70.3137V97.1813L72.3693 95.1257H78.1249C79.7968 95.1257 80.7424 95.8246 80.9616 97.2224L83.0583 95.1257H88.8139C89.6088 95.1257 90.2803 95.4135 90.8284 95.9891C91.404 96.5372 91.6918 97.2087 91.6918 98.0036V109.515Z" fill="white"/>
<path d="M127.273 89.3701L122.75 109.515H117.2L113.295 94.7557H112.884L108.978 109.515H103.428L98.9056 89.3701H102.606L105.895 106.719H106.717L111.445 89.3701H114.734L119.461 106.719H120.284L123.573 89.3701H127.273Z" fill="white"/>
<path d="M148.23 109.515H145.352V107.418L142.885 109.515H136.719C135.924 109.515 135.239 109.241 134.663 108.693C134.115 108.117 133.841 107.432 133.841 106.637V103.759C133.841 102.964 134.115 102.293 134.663 101.745C135.239 101.169 135.924 100.881 136.719 100.881H144.941L142.474 103.307H136.719V107.048H145.352V97.5924H133.841L136.308 95.1257H145.352C146.147 95.1257 146.818 95.4135 147.367 95.9891C147.942 96.5372 148.23 97.2087 148.23 98.0036V109.515Z" fill="white"/>
<path d="M168.564 95.1257L166.056 97.5924H159.108V100.881H164.864C165.659 100.881 166.33 101.169 166.878 101.745C167.454 102.293 167.742 102.964 167.742 103.759V106.637C167.742 107.432 167.454 108.117 166.878 108.693C166.33 109.241 165.659 109.515 164.864 109.515H156.231V107.048H164.864V103.348H159.108C158.314 103.348 157.628 103.074 157.053 102.526C156.505 101.95 156.231 101.265 156.231 100.47V98.0036C156.231 97.2087 156.505 96.5372 157.053 95.9891C157.628 95.4135 158.314 95.1257 159.108 95.1257H168.564Z" fill="white"/>
<path d="M200 109.515H197.122V97.5924H189.311V109.515H186.433V97.5924H178.622V109.515H175.744V95.1257H178.622V97.1813L180.678 95.1257H186.433C188.105 95.1257 189.051 95.8246 189.27 97.2224L191.367 95.1257H197.122C197.917 95.1257 198.589 95.4135 199.137 95.9891C199.712 96.5372 200 97.2087 200 98.0036V109.515Z" fill="white"/>
<defs>
<linearGradient id="paint0_linear_2959_2277" x1="78.42" y1="2.90476" x2="122.681" y2="65.9766" gradientUnits="userSpaceOnUse">
<stop stop-color="#FCECB2"/>
<stop offset="0.260417" stop-color="#FF8B89"/>
<stop offset="0.520833" stop-color="#FC8ADC"/>
<stop offset="0.755208" stop-color="#7954FF"/>
<stop offset="1" stop-color="#70BCFF"/>
</linearGradient>
</defs>
</svg>
